img/search-icon.svg

<svg xmlns="http://www.w3.org/2000/svg" preserveAspectRatio="xMidYMid" width="22.97" height="23" viewBox="0 0 22.97 23"><defs><style>.cls-1{fill:#c2bdb4;fill-rule:evenodd}</style></defs><path d="M16.613 18.7c-1.34.577-2.538 1.258-3.822 1.618C7.19 21.886 1.603 18.38.275 12.546-.994 6.98 2.656 1.266 8.262.216c4.28-.8 7.84.632 10.326 4.252 2.447 3.566 2.477 7.377.37 11.164-.292.523-.33.828.132 1.267 1.143 1.086 2.24 2.225 3.33 3.37.707.743.734 1.638.127 2.265-.62.642-1.48.623-2.225-.11-1.163-1.144-2.295-2.32-3.442-3.482-.126-.128-.265-.24-.267-.243zm-6.353-.44c4.437-.077 7.864-3.667 7.775-8.15-.083-4.272-3.712-7.742-8.015-7.662-4.147.077-7.622 3.718-7.583 7.946.04 4.33 3.63 7.94 7.823 7.867z" class="cls-1"/></svg>

<svg xmlns="http://www.w3.org/2000/svg" xmlns:xlink="http://www.w3.org/1999/xlink" preserveAspectRatio="xMidYMid" width="22.97" height="23" viewBox="0 0 22.97 23">
  <defs>
    <style>
      .cls-1 {
        fill: #c2bdb4;
        fill-rule: evenodd;
      }
    </style>
  </defs>
  <path d="M16.613,18.700 C15.272,19.277 14.075,19.958 12.791,20.318 C7.188,21.886 1.602,18.380 0.274,12.546 C-0.994,6.980 2.656,1.265 8.262,0.217 C12.541,-0.584 16.103,0.848 18.588,4.468 C21.035,8.034 21.065,11.845 18.957,15.632 C18.666,16.155 18.628,16.460 19.090,16.899 C20.233,17.986 21.331,19.125 22.420,20.269 C23.127,21.013 23.154,21.908 22.547,22.535 C21.926,23.177 21.067,23.158 20.322,22.425 C19.159,21.281 18.027,20.104 16.880,18.943 C16.754,18.815 16.615,18.702 16.613,18.700 ZM10.260,18.261 C14.697,18.183 18.124,14.593 18.035,10.110 C17.952,5.838 14.323,2.368 10.020,2.448 C5.873,2.525 2.398,6.166 2.437,10.394 C2.477,14.724 6.067,18.334 10.260,18.261 Z" class="cls-1"/>
</svg>
